svg/black/nebl.svg

<svg xmlns="http://www.w3.org/2000/svg" width="32" height="32" viewBox="0 0 32 32">
  <path fill-rule="evenodd" d="M11.2904324,8.16194033 L7.82261658,10.0597153 C7.45067531,10.297934 7.13680726,10.6187811 6.9046114,10.9980602 C6.64094639,11.4292979 6.50083338,11.9266454 6.5,12.4342759 L6.50704303,15.0055003 L6.5,15 L6.5,16.0339646 L6.5,19.5655572 C6.5,20.0955261 6.65455959,20.6044962 6.93200078,21.0435045 C7.19091144,21.4534658 7.55662905,21.8034327 8.00680829,22.0506114 L14.4928964,25.616702 C14.9726351,25.8784425 15.5106686,26.0102368 16.0551295,25.9993795 L16.0551295,21.6762333 L15.6906914,21.4758951 L11.2746114,19.0480876 L10.9313316,18.8449995 L10.9235544,18.6473111 L10.9235544,18.4546225 L10.923122,18.4542848 L10.9235544,13.6022073 L7.27693082,15.6067525 L10.9235544,13.6021073 L10.9235544,13.2027308 L15.6800003,10.5799999 L15.667724,10.5681096 L15.6907824,10.5807847 L16.0550311,10.3807964 L16.0550311,6.00055359 C15.5832474,5.99168346 15.1154272,6.08950637 14.685456,6.28693677 L11.2825855,8.15762695 L11.2904324,8.16194033 Z M16,32 C7.163444,32 0,24.836556 0,16 C0,7.163444 7.163444,0 16,0 C24.836556,0 32,7.163444 32,16 C32,24.836556 24.836556,32 16,32 Z M20.3594663,13.6609039 L16.0527668,16.028419 L16.0527668,20.8104842 L20.3595648,18.4429231 L20.3594663,18.3958718 L20.3594663,13.6609039 Z M25.5,12.4342759 C25.5,11.9394049 25.3650311,11.4631329 25.1213782,11.0444575 L21.1868031,13.2074305 L21.1868031,18.8855972 L20.7809119,19.1087841 L20.7809119,23.8163077 L23.9929948,22.0505114 C24.4597423,21.7939712 24.836542,21.4284755 25.0970622,20.9990731 C25.3597014,20.568419 25.4992149,20.0720427 25.5,19.5654572 L25.5,12.4342759 Z M23.9929948,9.94902179 L20.7808135,8.18332544 L16.4472383,10.5655856 L20.7808135,12.9479457 L21.1868031,13.1710326 L21.1868031,13.2073305 L25.1213782,11.0443575 C24.8605959,10.5960838 24.4752798,10.2144062 23.9929948,9.94902179 Z M16.055228,10.3802965 L16.4470415,10.5653856 L20.7805181,8.18302546 L17.506513,6.38313113 C17.0599385,6.13928232 16.5621883,6.00806892 16.055228,6.00055359 L16.055228,10.3802965 Z M16.0827927,21.6914324 L16.055228,21.6763333 L16.055228,25.9993795 C16.5623037,25.9917496 17.0601459,25.8604357 17.5068083,25.616502 L20.7291295,23.845206 L16.4472383,21.4914442 L16.0827927,21.6914324 Z M20.7808135,19.1088841 L16.4472383,21.4910442 L20.7291295,23.844806 L20.7808135,23.8163077 L20.7808135,19.1088841 Z"/>
</svg>

<svg xmlns="http://www.w3.org/2000/svg" width="32" height="32"><path fill-rule="evenodd" d="M11.29 8.162L7.823 10.06a2.93 2.93 0 0 0-.918.938 2.763 2.763 0 0 0-.405 1.436l.007 2.572L6.5 15v4.566c0 .53.155 1.038.432 1.478.259.41.625.76 1.075 1.007l6.486 3.566a3.13 3.13 0 0 0 1.562.382v-4.323l-.364-.2-4.416-2.428-.344-.203-.007-.198v-5.045l-3.647 2.005 3.647-2.005v-.4l4.756-2.622-.012-.012.023.013.364-.2V6a3.14 3.14 0 0 0-1.37.286l-3.402 1.87.007.005zM16 32C7.163 32 0 24.837 0 16S7.163 0 16 0s16 7.163 16 16-7.163 16-16 16zm4.36-18.34l-4.307 2.368v4.782l4.307-2.367V13.66zm5.14-1.226c0-.495-.135-.97-.379-1.39l-3.934 2.163v5.679l-.406.223v4.707l3.212-1.765a2.947 2.947 0 0 0 1.104-1.052c.263-.43.402-.927.403-1.434v-7.13zM23.993 9.95l-3.212-1.766-4.334 2.383 4.334 2.382.406.223v.036l3.934-2.163a2.94 2.94 0 0 0-1.128-1.095zm-7.938.431l.392.185 4.334-2.382-3.274-1.8a3.124 3.124 0 0 0-1.452-.382v4.38zm.028 11.311l-.028-.015V26a3.126 3.126 0 0 0 1.452-.382l3.222-1.772-4.282-2.354-.364.2zm4.698-2.582l-4.334 2.382 4.282 2.354.052-.029V19.11z"/></svg>
